!!!COM: Monteverdi, Claudio
!!!CDT: 1567/05/15/-1643/11/29/
!!!OTL: Felle amaro me potavit populus
!!!OTL2: Cruda Amarilli, che col nome ancora
!!!ONM: No. 1
!!!SMS: Musica tolta da i madrigali di Claudio Monteverdi, e d'altri autori, e fatta spirituale
!!!PPR: A. Coppini, ed.
!!!PPP: Milan
!!!PDT: 1607
!!!URL: http://www.jpj.dk/coppini.htm
!!!AIN: contrafacta
**kern	**kern	**kern	**kern	**kern
!basso	!tenore	!quinto	!alto	!canto
*staff5	*staff4	*staff3	*staff2	*staff1
*Ivox	*Ivox	*Ivox	*Ivox	*Ivox
*clefF4	*clefGv2	*clefGv2	*clefG2	*clefG2
*k[]	*k[]	*k[]	*k[]	*k[]
*M4/4	*M4/4	*M4/4	*M4/4	*M4/4
*MM120	*MM120	*MM120	*MM120	*MM120
=1-	=1-	=1-	=1-	=1-
1G	1d	1g	1b	[1dd
=2	=2	=2	=2	=2
2E\	2G/	2g\	2b\	2dd\]
2BB/	2G/	4d\	4a/	4cc\
.	.	4d\	4g/	4b\
=3	=3	=3	=3	=3
1D	1A	1d	1f#	1a
=4	=4	=4	=4	=4
1G	1G	1d	1g	2b\
.	.	.	.	[2gg\
=5	=5	=5	=5	=5
1c	2r	1e	[1ee	1gg_
.	2g\	.	.	.
=6	=6	=6	=6	=6
2A\	2c\	2e\	2ee\]	2gg\]
2E\	2c\	4f\	4dd\	4ff\
.	.	4g\	4cc\	4ee\
=7	=7	=7	=7	=7
1G	1d	1g	1b	1dd
=8	=8	=8	=8	=8
1C	1e	1g	1cc	1cc
=9	=9	=9	=9	=9
4.c\	4.c\	4.e\	4.g/	4.cc\
8c\	8d\	8e\	8g/	8cc\
4c\	4e\	4e\	4a/	4cc\
4B\	4d\	4g\	4b\	4dd\
=10	=10	=10	=10	=10
2A\	2c\	2a\	2cc\	2ff\
4A\	4c\	4a\	4cc\	4ee\
4A\	4c\	4a\	4cc\	4ff#\
=11	=11	=11	=11	=11
2G\	1g	2d\	2b\	[1gg
[2c\	.	[2e\	2r	.
=12	=12	=12	=12	=12
4c\]	2.g\	4e\]	2.e/	1gg]
16B\LL	.	4f#\	.	.
16A\	.	.	.	.
16G\	.	.	.	.
16F\JJ	.	.	.	.
2E\	.	[2g\	.	.
.	16f\LL	.	4e/	.
.	16e\	.	.	.
.	16d\	.	.	.
.	16c\JJ	.	.	.
=13	=13	=13	=13	=13
1G	4B\	4g\]	1d	4r
.	2c\	16f\LL	.	4aa\
.	.	16e\	.	.
.	.	16d\	.	.
.	.	16c\JJ	.	.
.	.	2d\	.	2ff\
.	4B\	.	.	.
=14	=14	=14	=14	=14
2C/	2c\	2c\	1g	1ee
4.c\	4.c\	4.e\	.	.
8c\	8c\	8e\	.	.
=15	=15	=15	=15	=15
4c\	4c\	4e\	1r	1r
4B\	4d\	4d\	.	.
2A\	2f\	2c\	.	.
=16	=16	=16	=16	=16
4A\	4e\	4c\	1r	1r
4A\	4f#\	4c\	.	.
2G\	[2g\	2d\	.	.
=17	=17	=17	=17	=17
8c\L	1g]	1e	1r	1r
8d\J	.	.	.	.
8c\L	.	.	.	.
16B\L	.	.	.	.
16A\JJ	.	.	.	.
8G\L	.	.	.	.
8F\J	.	.	.	.
8E\L	.	.	.	.
8D\J	.	.	.	.
=18	=18	=18	=18	=18
8C/L	2.e\	2.g\	1r	1r
8BB/J	.	.	.	.
16C\LL	.	.	.	.
16D\	.	.	.	.
16E\	.	.	.	.
16F\JJ	.	.	.	.
[2G\	.	.	.	.
.	16d\LL	16f\LL	.	.
.	16c\	16e\	.	.
.	16B\	16d\	.	.
.	16A\JJ	16c\JJ	.	.
=19	=19	=19	=19	=19
1G]	4B\	2d\	1r	1r
.	2c\	.	.	.
.	.	8d\L	.	.
.	.	8e\J	.	.
.	4B\	[4f\	.	.
=20	=20	=20	=20	=20
2C/	2c\	4f\]	1r	1r
.	.	2e\	.	.
2r	2d\	.	.	.
.	.	4d\	.	.
=21	=21	=21	=21	=21
2r	2e\	2c\	1r	1r
2BB/	[2f\	[2d\	.	.
=22	=22	=22	=22	=22
2C/	4f\]	4d\]	1r	1r
.	2e\	2c\	.	.
2D\	.	.	.	.
.	[4d\	[4B\	.	.
=23	=23	=23	=23	=23
2E\	4d\]	4B\]	1r	1r
.	2c\	2A/	.	.
2G\	.	.	.	.
.	4B\	4G/	.	.
=24	=24	=24	=24	=24
1D	4B\	4G/	1r	1r
.	8A/L	8F#/L	.	.
.	8G/J	8E/J	.	.
.	2A/	2F#/	.	.
=25	=25	=25	=25	=25
1G	1G	1G	1r	1r
=26	=26	=26	=26	=26
2.C/	2e\	4.g\	2cc\	2.gg\
.	.	8f\	.	.
.	4e\	4e\	2a/	.
4D\	[4d\	4f\	.	4ff\
=27	=27	=27	=27	=27
2A\	4d\]	2a\	2a/	2ee\
.	4c#\	.	.	.
2D\	2d\	2f#\	2a/	2dd\
=28	=28	=28	=28	=28
1r	2.c\	2.e\	2cc\	8gg\L
.	.	.	.	8ee\J
.	.	.	.	8ff\L
.	.	.	.	8gg\J
.	.	.	4cc\	4.aa\
.	4B-\	4f\	[4dd\	.
.	.	.	.	8dd\
=29	=29	=29	=29	=29
1r	2A/	2a\	4dd\]	2ee\
.	.	.	4cc#\	.
.	[2d\	[2a\	[2dd\	[2dd\
=30	=30	=30	=30	=30
1r	4d\]	4a\]	4dd\]	4dd\]
.	4B\	4g\	4dd\	4dd\
.	4.c\	4.e\	4.cc\	4.gg\
.	8c\	8e\	8cc\	8gg\
=31	=31	=31	=31	=31
1r	4c\	4e\	4cc\	4gg\
.	4d\	4a\	4cc\	4ff\
.	2e\	2g#\	2b\	2ee\
=32	=32	=32	=32	=32
1r	4e\	4g#\	4b\	4ee\
.	4A/	4a\	4cc#\	4ee\
.	4.d\	4.a\	4.dd\	4.ff#\
.	8d\	8a\	8dd\	8ff#\
=33	=33	=33	=33	=33
1r	4B\	4g\	4dd\	4gg\
.	4B\	4g\	4dd\	4gg\
.	2c\	2g\	2cc\	2ee\
=34	=34	=34	=34	=34
1r	[1G	2g\	1b	1dd
.	.	[2g\	.	.
=35	=35	=35	=35	=35
1r	1G]	4g\]	2.g/	1r
.	.	4d\	.	.
.	.	4e\	.	.
.	.	8B\	4d/	.
.	.	8B\	.	.
=36	=36	=36	=36	=36
2.C/	[1g	4c\	4e/	[1gg
.	.	4d\	8B/	.
.	.	.	8B/	.
.	.	4e\	2c/	.
4D\	.	4f\	.	.
=37	=37	=37	=37	=37
4E\	4g\]	[1g	2B/	2.gg\]
8BB/	4d\	.	.	.
8BB/	.	.	.	.
[2C/	4e\	.	2r	.
.	8B\	.	.	4dd\
.	8B\	.	.	.
=38	=38	=38	=38	=38
1C]	4c\	1g]	1r	4ee\
.	4d\	.	.	8b\
.	.	.	.	8b\
.	2e\	.	.	2cc\
=39	=39	=39	=39	=39
2G\	2d\	2g\	2r	2b\
4G\	4B\	4d\	4g/	4dd\
4E\	4c\	4G/	4g/	4ee\
=40	=40	=40	=40	=40
2F#\	2d\	2A/	2d/	2a/
2G\	2B\	2d\	4d/	2g/
.	.	.	[4g/	.
=41	=41	=41	=41	=41
4c\	4e\	4c\	4g/]	4gg\
4A\	4f\	4c\	4cc\	4aa\
2B\	2d\	2G/	2dd\	2ff\
=42	=42	=42	=42	=42
2c\	2e\	2c\	2cc\	2ee\
8r	8r	8r	8r	8r
8C/	8e\	8g\	8ee\	8gg\
8E\	8e\	8g\	8dd\	8ff\
8F\	8e\	8g\	8cc\	8ee\
=43	=43	=43	=43	=43
8G\	8B\	8g\	8b\	8dd\
8G\	8G/	8g\	8b\	8dd\
8C/	8G/	8e\	8a/	8cc\
8C/	8G/	8e\	8g/	8b\
4D\	4d\	4A/	4f#/	4a/
4G\	4d\	4G/	4g/	4b\
=44	=44	=44	=44	=44
2r	2r	1r	1r	1r
[2d\	[2f\	.	.	.
=45	=45	=45	=45	=45
4d\]	4f\]	1r	2.a/	1r
8c\	8e\	.	.	.
8B\	8d\	.	.	.
4A\	4c\	.	.	.
4B\	4d\	.	8g/	.
.	.	.	8f/	.
=46	=46	=46	=46	=46
4c#\	1e	1r	4e/	1r
2d\	.	.	4f/	.
.	.	.	2g/	.
4c#\	.	.	.	.
=47	=47	=47	=47	=47
4d\	2d\	2r	2f/	1r
4D\	.	.	.	.
4E\	[2c\	[2e\	2r	.
4F\	.	.	.	.
=48	=48	=48	=48	=48
2.G\	4c\]	4e\]	4r	2.gg\
.	8B\	8d\	4d/	.
.	8A/	8c\	.	.
.	4G/	4B\	4e/	.
4G\	4A/	4c\	4f/	8ff\
.	.	.	.	8ee\
=49	=49	=49	=49	=49
1G	4B\	1d	2g/	4dd\
.	2c\	.	.	4ee\
.	.	.	2r	2ff\
.	4B\	.	.	.
=50	=50	=50	=50	=50
1C	1c	4c\	4r	1ee
.	.	4e\	4g/	.
.	.	4f\	4a/	.
.	.	4g\	4b\	.
=51	=51	=51	=51	=51
1r	1r	1a	1cc	4r
.	.	.	.	4ee\
.	.	.	.	4ff\
.	.	.	.	4gg\
=52	=52	=52	=52	=52
4r	1r	2r	4r	[1aa
4E\	.	.	4cc\	.
4F\	.	[2f\	4dd\	.
4G\	.	.	4ee\	.
=53	=53	=53	=53	=53
2.A\	2.a\	4f\]	1ff	1aa]
.	.	8e\	.	.
.	.	8d\	.	.
.	.	4c#\	.	.
4A\	8g\	4d\	.	.
.	8f\	.	.	.
=54	=54	=54	=54	=54
1A	4e\	1e	4cc#\	4r
.	4f\	.	2dd\	4ee\
.	2g\	.	.	2ee\
.	.	.	4cc#\	.
=55	=55	=55	=55	=55
[1D	2f#\	4a\	2dd\	1dd
.	.	4A/	.	.
.	2r	4B\	[2g/	.
.	.	4c\	.	.
=56	=56	=56	=56	=56
1D]	1r	2d\	4g/]	2.dd\
.	.	.	8f/	.
.	.	.	8e/	.
.	.	4r	4d/	.
.	.	4A/	4e/	8cc\
.	.	.	.	8b\
=57	=57	=57	=57	=57
1r	1r	1A	4f#/	4a/
.	.	.	2g/	4b\
.	.	.	.	2cc\
.	.	.	4f#/	.
=58	=58	=58	=58	=58
1r	4r	2G/	2.g/	[1b
.	4d\	.	.	.
.	4e\	[2g\	.	.
.	4f\	.	4a/	.
=59	=59	=59	=59	=59
2r	2g\	4g\]	4b\	1b]
.	.	8f\	4cc\	.
.	.	8e\	.	.
4r	2r	4d\	2dd\	.
4G\	.	4e\	.	.
=60	=60	=60	=60	=60
4A\	4r	2f\	2.cc\	2r
4B\	4d\	.	.	.
[2c\	4e\	[2e\	.	[2gg\
.	4f\	.	8b\	.
.	.	.	8a/	.
=61	=61	=61	=61	=61
2c\]	1g	2e\]	4g/	4gg\]
.	.	.	4a/	8ff\
.	.	.	.	8ee\
2r	.	2r	4b\	4dd\
.	.	.	[4cc\	4ee\
=62	=62	=62	=62	=62
4r	2r	2r	4cc\]	2ff\
4D\	.	.	4b\	.
4E\	4r	4r	2cc\	2ee\
4F\	4A/	4c\	.	.
=63	=63	=63	=63	=63
2.G\	4B\	4B\	2r	4r
.	4c\	4A/	.	4a/
.	[2d\	[2G/	4r	4b\
4AA/	.	.	4cc\	4cc\
=64	=64	=64	=64	=64
4BB/	4d\]	2G/]	2b\	4dd\
4C/	4g\	.	.	4e/
[2D\	4f#\	2r	4a/	4f#/
.	4e\	.	[4g/	4g/
=65	=65	=65	=65	=65
2D\]	2.d\	4r	4g/]	2.a/
.	.	4A/	4f#/	.
2D\	.	4B\	[2g/	.
.	4d\	4c\	.	4a/
=66	=66	=66	=66	=66
1D	1d	4.d\	4g/]	1a
.	.	.	8f#/L	.
.	.	8A/	8e/J	.
.	.	2A/	2f#/	.
=67	=67	=67	=67	=67
1G	1d	1G	1g	1b
==	==	==	==	==
*-	*-	*-	*-	*-
!!!ENC: Craig Stuart Sapp
!!!END: 2004/12/10/
